X:19
T:Old Kiss My Lady JBs.019
S:Jas.Blackshaw MS, 1837, N.Shropshire
Z:Tony Weatherall 2006
M:2/4
L:1/8
Q:1/4=100
A:North Shropshire
R:Country Dance
K:C
Gc ce|fd df|eg g/f/e/d/|ccâ€™ â€œ*fc in MSâ€ge|\
Gc ce|fd df|eg g/f/e/d/|cc c2:|!
|:c geg|c afa|c fdf|c geg|\
c câ€™ge|f afd|e/f/g/a/ g/f/e/d/|cc c2:|!
|:g>f ef|ggge|f>e de|fffd|\
e>f ed|cBccâ€™|agfe|e2d2:|!
|:ff/f/ fd|ee/e/ ec|fffd|eeec|\
â€œ* not dotted in MS.â€a3g|abcâ€™g|f/e/d/c/ e/d/c/B/|c4:|

